storage/app/icons/phosphoricons/light/shopping-bag-open-light.svg

<svg xmlns="http://www.w3.org/2000/svg" fill="currentColor" viewBox="0 0 256 256"><path d="M216 42H40a14 14 0 0 0-14 14v144a14 14 0 0 0 14 14h176a14 14 0 0 0 14-14V56a14 14 0 0 0-14-14M40 54h176a2 2 0 0 1 2 2v18H38V56a2 2 0 0 1 2-2m176 148H40a2 2 0 0 1-2-2V86h180v114a2 2 0 0 1-2 2m-42-90a46 46 0 0 1-92 0 6 6 0 0 1 12 0 34 34 0 0 0 68 0 6 6 0 0 1 12 0"/></svg>

<svg xmlns="http://www.w3.org/2000/svg" viewBox="0 0 256 256" fill="currentColor"><path d="M216,42H40A14,14,0,0,0,26,56V200a14,14,0,0,0,14,14H216a14,14,0,0,0,14-14V56A14,14,0,0,0,216,42ZM40,54H216a2,2,0,0,1,2,2V74H38V56A2,2,0,0,1,40,54ZM216,202H40a2,2,0,0,1-2-2V86H218V200A2,2,0,0,1,216,202Zm-42-90a46,46,0,0,1-92,0,6,6,0,0,1,12,0,34,34,0,0,0,68,0,6,6,0,0,1,12,0Z"/></svg>
